dist/images/phone.svg

<svg  viewBox="0 0 76 76"  xmlns="http://www.w3.org/2000/svg">
<path d="M10.928 15.7416C10.928 12.2479 12.3159 8.89724 14.7863 6.42679L17.3563 3.85688L30.2127 16.7134L29.3476 17.8257C27.0965 20.7199 26.5499 24.5912 27.9117 27.9955C28.1595 28.6151 28.4668 29.2091 28.8293 29.7693L30.2656 31.9891C33.6075 37.1538 38.1679 41.4176 43.5453 44.405L46.9262 46.2833C50.1291 47.8848 53.9283 47.7389 56.999 45.8964L58.497 44.9976L71.3535 57.8541L68.7836 60.424C66.3131 62.8945 62.9625 64.2824 59.4688 64.2824C52.967 64.2824 46.6107 62.3578 41.2009 58.7513L37.9266 56.5685L32.2943 52.2614C28.7794 49.5735 25.6368 46.431 22.949 42.916L18.6419 37.2837L16.4591 34.0095C12.8526 28.5997 10.928 22.2434 10.928 15.7416Z" fill="white"/>
<path d="M26.999 7.0708C30.5492 10.621 33.0533 13.873 30.2131 16.7132C27.3729 19.5533 22.1925 18.9777 18.6423 15.4275C15.092 11.8773 14.5164 6.69685 17.3566 3.85667C20.1968 1.0165 23.4488 3.52058 26.999 7.0708Z" fill="white"/>
<path d="M68.7825 47.5691C72.3327 51.1193 74.1939 55.0141 71.3538 57.8543C68.5136 60.6944 63.3331 60.1188 59.7829 56.5686C56.2327 53.0184 55.6571 47.838 58.4973 44.9978C61.3375 42.1576 65.2322 44.0189 68.7825 47.5691Z" fill="white"/>
</svg>

<svg viewBox="0 0 76 76" xmlns="http://www.w3.org/2000/svg"><path d="M10.928 15.742c0-3.494 1.388-6.845 3.858-9.315l2.57-2.57 12.857 12.856-.865 1.113a10.321 10.321 0 00-.519 11.943l1.437 2.22a37.52 37.52 0 0013.28 12.416l3.38 1.878A10.474 10.474 0 0057 45.896l1.498-.898 12.856 12.856-2.57 2.57a13.173 13.173 0 01-9.314 3.858 32.933 32.933 0 01-18.268-5.53l-3.274-2.184-5.633-4.307a49.996 49.996 0 01-9.345-9.345l-4.307-5.632-2.183-3.274a32.933 32.933 0 01-5.531-18.268z" fill="#fff"/><path d="M26.999 7.07c3.55 3.551 6.054 6.803 3.214 9.643-2.84 2.84-8.02 2.265-11.57-1.286-3.551-3.55-4.127-8.73-1.286-11.57 2.84-2.84 6.092-.336 9.642 3.214zm41.783 40.5c3.55 3.55 5.412 7.444 2.572 10.284-2.84 2.84-8.02 2.265-11.571-1.285-3.55-3.55-4.126-8.731-1.286-11.571 2.84-2.84 6.735-.98 10.285 2.571z" fill="#fff"/></svg>
